X:1
T:What Easter Brings
T:What Easter Brings
T:Joseph Lincoln Hall
T:Emma Lent, 1900
T:Public Domain Courtesy of the Cyber Hymnal™
T:Public Domain Courtesy of the Cyber Hymnal™
C:Joseph Lincoln Hall
Z:Public Domain
Z:Courtesy of the Cyber Hymnal™
%%score ( 1 2 ) 3
L:1/8
Q:1/4=110
M:3/4
K:A
V:1 treble 
V:2 treble 
V:3 bass 
V:1
 E2 | (cB) B2 A2 | A2 E2 E2 | F2 A2 F2 | E4 E2 | (cB) B2 A2 | A2 B2 c2 | [^DB]2 [DA]2 [DF]2 | %8
w: 1.~A|light * in the|sky that is|gold- en and|clear, A|sound * of glad|bells fall- ing|sweet on the|
w: 2.~A|per- * fume from|ros- es and|lil- ies full|fair, An|an- * them of|praise ring- ing|out on the|
w: 3.~Here|par- * don and|peace for the|heart we shall|find, And|sol- * ace for|sor- row, and|strength for the|
 B4 [=DE]2 | (cB) B2 A2 | A2 E2 E2 | [DF]2 [FA]2 [FB]2 | [^Ec]4 [Ec]2 | [FB]2 [FA]2 [DF]2 | %14
w: ear, A|thrill * of a|bird from a|sum- mer land|come, A|joy in the|
w: air, A|balm * to the|hearts that by|grief have been|riv’n, A|key to the|
w: mind, For|sure- * ly and|sure- ly our|dead shall a-|rise, When|th’last Eas- ter|
 [CE]2 [CA]2 [Fd]2 | [Ec]2 [Ec]2 [DB]2 | [CA]4 ||"^Refrain" e2!ff! | e2 [EGB]2 [EGd]2 | %19
w: heart, and a|song in the|home.|||
w: grave, and a|prom- ise of|Heav’n.|O|Eas- ter, glad|
w: morn- ing gilds|bright- ly the|skies.|||
 c2 [EA]2 [Ec]2 | [GB]2 [FA]2 [DF]2 | [CE]4 e2 | e2 [EGB]2 [EGd]2 | c2 [EA]2 [Ec]2 | %24
w: |||||
w: Eas- ter! We|greet thee a-|gain, And|fain would for-|get all our|
w: |||||
 [^DB]2 [DA]2 [DF]2 | B4 [=DE]2 | (cB) B2 A2 | A2 E2 E2 | [DF]2 [FA]2 [FB]2 | [^Ec]4 [Ec]2 | %30
w: ||||||
w: sor- row and|pain, Geth-|sem- * a- ne’s|gar- den full|well we have|known, But|
w: ||||||
 [FB]2 [FA]2 [DF]2 | [CE]2 [CA]2 [Fd]2 | [Ec]2 [Ec]2 [DB]2 | [CA]4 |] %34
w: ||||
w: now we look|up to a|con- quer- or’s|throne.|
w: ||||
V:2
 x2 | x6 | x6 | x6 | x6 | x6 | x6 | x6 | (E2 ^D2) x2 | x6 | x6 | x6 | x6 | x6 | x6 | x6 | x4 || %17
 x2 | x6 | x6 | x6 | x6 | x6 | x6 | x6 | (E2 ^D2) x2 | x6 | x6 | x6 | x6 | x6 | x6 | x6 | x4 |] %34
V:3
 z2 | A,,2 [E,A,C]2 [E,A,C]2 | A,,2 [E,A,C]2 [E,A,C]2 | D,2 [F,A,D]2 [F,A,D]2 | %4
 (A,,2 [E,A,C]2) [E,A,C]2 | A,,2 [E,A,C]2 [E,A,C]2 | A,,2 [E,A,C]2 [E,A,C]2 | %7
 [B,,A,]2 [B,,A,]2 [B,,A,]2 | ([E,G,]2 [F,A,]2) [G,B,]2 | A,,2 [E,A,C]2 [E,A,C]2 | %10
 A,,2 [E,A,C]2 [E,A,C]2 | [D,A,]2 [D,A,]2 [D,F,]2 | [C,G,]4 [C,G,]2 | [D,F,]2 [D,A,]2 [D,A,]2 | %14
 [A,,A,]2 [A,,A,]2 [A,,A,]2 | [E,A,]2 [E,G,]2 [E,G,]2 | [A,,A,]4 || z2 | %18
 [E,,E,]2 [E,G,B,D]2 [E,G,B,D]2 | A,,2 [E,A,C]2 [E,A,C]2 | [D,A,]2 [D,A,]2 [D,A,]2 | %21
 ([A,,A,]2 [E,A,C]2) [E,A,C]2 | [E,,E,]2 [E,G,B,D]2 [E,G,B,D]2 | A,,2 [E,A,C]2 [E,A,C]2 | %24
 [B,,A,]2 [B,,A,]2 [B,,A,]2 | ([E,G,]2 [F,A,]2) [G,B,]2 | A,,2 [E,A,C]2 [E,A,C]2 | %27
 A,,2 [E,A,C]2 [E,A,C]2 | [D,A,]2 [D,A,]2 [D,F,]2 | [C,G,]4 [C,G,]2 | [D,F,]2 [D,A,]2 [D,A,]2 | %31
 [A,,A,]2 [A,,A,]2 [A,,A,]2 | [E,A,]2 [E,G,]2 [E,G,]2 | [A,,A,]4 |] %34

